src/images/logo-circle-inverted.svg

<?xml version="1.0" encoding="UTF-8"?>
<svg width="40px" height="40px" viewBox="0 0 40 40" version="1.1" xmlns="http://www.w3.org/2000/svg" xmlns:xlink="http://www.w3.org/1999/xlink">
    <!-- Generator: Sketch 48.2 (47327) - http://www.bohemiancoding.com/sketch -->
    <title>Fm filled circle</title>
    <desc>Created with Sketch.</desc>
    <defs></defs>
    <g id="Future-web-v8@2x" stroke="none" stroke-width="1" fill="none" fill-rule="evenodd" transform="translate(-150.000000, -50.000000)">
        <g id="Header-Block" fill="#000000">
            <g id="Group-11" transform="translate(0.000000, -20.000000)">
                <g id="Nav-Menu" transform="translate(150.000000, 70.000000)">
                    <path d="M20,40 C8.954305,40 0,31.045695 0,20 C0,8.954305 8.954305,0 20,0 C31.045695,0 40,8.954305 40,20 C40,31.045695 31.045695,40 20,40 Z M22.2121137,25.9138526 C22.226769,25.9317776 21.8955606,26.0565931 21.3267448,26.356537 C21.06514,26.5463078 21.079686,23.8570009 21.1791833,23.5528688 C21.6777707,21.7424851 22.7430264,19.9860704 24.0566323,18.6833397 C24.0840059,18.6455408 24.0975521,18.6320445 24.1304131,18.6095589 C29.9563333,12.7732633 31.6499154,8.31374552 31.6560489,8.28025478 C31.6225729,8.28640308 27.1631051,9.98003512 21.3267448,15.8058906 C21.3042739,15.8388163 21.2907777,15.8523126 21.2529641,15.8796714 C19.9502481,17.1932921 18.1938334,18.2585477 16.383435,18.7571204 C16.0793176,18.8566825 13.3900107,18.8712285 13.5797667,18.6095589 C13.8797254,18.0407579 14.0045409,17.7095494 14.0224512,17.72419 C14.0058905,17.7083997 11.9951461,18.6635358 9.74316802,20.896762 C7.51083511,23.1475969 6.49681529,24.7587517 6.49681529,24.7333607 L6.71815752,24.9547029 L6.93949975,25.2498259 C6.95653826,25.2182747 7.15123447,25.0946089 7.45596496,24.8809221 C7.49184036,24.8463775 9.35327604,23.8773952 11.1450021,24.2168954 C12.0472317,24.3713587 12.7757304,24.6516313 13.2846437,24.8809221 C12.9739256,25.2402187 12.8345142,25.4329654 12.8419593,25.3973873 L13.1370822,25.7662911 C11.4088581,27.6001666 10.6075295,28.8699658 10.6285369,28.8650823 L11.0712214,29.3077668 C11.0663527,29.328839 12.3361519,28.5275104 14.1700126,26.7992215 L14.5389164,27.0943445 C14.503403,27.1018043 14.6960998,26.9623928 15.0553816,26.65166 C15.2846872,27.1605881 15.5649597,27.8890868 15.7194083,28.7913016 C16.0589232,30.5830424 15.089941,32.4444781 15.0553816,32.4803388 C14.8417096,32.785084 14.7180937,32.9797802 14.6864779,32.996804 L14.9816008,33.2181462 L15.2029431,33.4394884 C15.1775668,33.4395032 16.7887216,32.4254834 19.0395417,30.1931357 C21.2727826,27.9411724 22.2279187,25.930428 22.2121137,25.9138526 Z" id="Fm-filled-circle"></path>
                </g>
            </g>
        </g>
    </g>
</svg>

<svg width="40" height="40" viewBox="0 0 40 40" xmlns="http://www.w3.org/2000/svg">
  <path d="M20 40C8.954 40 0 31.046 0 20S8.954 0 20 0s20 8.954 20 20-8.954 20-20 20zm2.212-14.086c.015.018-.316.143-.885.443-.262.19-.247-2.5-.148-2.804.499-1.81 1.564-3.567 2.878-4.87a.249.249 0 0 1 .073-.073c5.826-5.837 7.52-10.296 7.526-10.33-.033.006-4.493 1.7-10.33 7.526a.248.248 0 0 1-.073.074c-1.303 1.313-3.06 2.379-4.87 2.877-.304.1-2.993.114-2.803-.147.3-.57.425-.9.442-.886-.016-.016-2.027.94-4.279 3.173-2.232 2.25-3.246 3.862-3.246 3.836l.221.222.221.295c.018-.032.212-.155.517-.37.036-.034 1.897-1.003 3.689-.663.902.154 1.63.435 2.14.664-.311.36-.45.552-.443.516l.295.37c-1.728 1.833-2.53 3.103-2.508 3.098l.442.443c-.005.02 1.265-.78 3.099-2.509l.369.295c-.036.008.157-.132.516-.442.23.509.51 1.237.664 2.14.34 1.791-.63 3.652-.664 3.688-.213.305-.337.5-.369.517l.296.221.22.221c-.024 0 1.587-1.014 3.838-3.246 2.233-2.252 3.188-4.263 3.172-4.28z" fill="#000" fill-rule="evenodd"/>
</svg>
